X:5780
T:sarah hobbs
O:england
M:4/4
L:1/8
Q:220
S:Sean Potts
K:EMin
| DEGA BG G2| AGBG AGEG| DEGA BG ed| BAAG AGDG
| DEGA BG G2| AGBG AGEG| DEGA BG ed| BAAG A2 Bd|
| eA (3ABA Bdeg| dBBA G2 Bd|eA (3ABA Bdeg| dBGB A2 Bd|
| eA (3ABA Bdeg| dBBA G2 Bd| eg g2 edef| gedB ABGE|


